X:1
T:Title
%%score { ( 1 3 ) | ( 2 4 ) }
L:1/8
Q:1/4=100
M:4/4
K:G
V:1 treble nm="Grand Piano"
V:3 treble 
V:2 bass 
V:4 bass 
V:1
 [B,D]3 B AGFG | [Fd]4 [A,DF]4 | [EFc]3 [DFB] [CFA][B,=F^G][C^FA][^CF_B] | [DGB]6 z2 | %4
w: A.~H.~Ackley * * * * *||||
 [G,B,D]3 B AGFG | [Fd]4 [A,DF]4 | [^CGA]3 [DGB] [EG^c][CGA][CGB][Gc] |[M:3/4] [Fd]6 | %8
w: ||||
[M:1/4] [Fd][F^c] |[M:4/4] [Fc]2 [DF]4 [FB]A | G2 D4 DE | F=F^FG [CFA][B,=F^G][C^FA][CE_B] | %12
w: ||||
 B6 z2 | [E^Ge]2 [EGB]2- [EGB][EBd][EAc][DEB] | %14
w: ||
 [CEA]2 [Ge]4 [Ge][G^d][Q:1/4=99][Q:1/4=97][Q:1/4=96][Q:1/4=94] | %15
w: |
 [Gd][DGB][B,G][EAc] [DGB][DGB].[CGA].[CEA][Q:1/4=93][Q:1/4=91][Q:1/4=90][Q:1/4=88][Q:1/4=87][Q:1/4=85][Q:1/4=84][Q:1/4=82][Q:1/4=81][Q:1/4=79][Q:1/4=78][Q:1/4=76] | %16
w: |
 [B,DG]6 z2 |] %17
w: |
V:2
 [G,,G,]3 [G,D] [G,CD][G,B,D][A,CD][G,B,D] | [D,A,]4 D,4 | D,3 D, D,D,D,D, | G,6 z2 | %4
 G,,3 [G,D] [G,CD][G,B,D][A,CD][G,B,D] | [D,A,]4 D,4 | E,3 E, A,,A,A,A, |[M:3/4] [D,A,]6 | %8
[M:1/4] [D,A,][D,A,] |[M:4/4] [D,A,]2 [D,A,]4 [D,D][D,CD] | [G,B,D]2 [G,B,]4 [G,B,][G,B,] | %11
 [D,A,C][D,^G,C][D,A,C][D,B,D] D,D,D,D, | z[K:treble] GFE D2 G,[K:bass]F, | E,2 E,2- E,^G,,A,,B,, | %14
 C,2 [^C,_B,]4 [C,B,][C,B,] | [D,B,]D,E,A,, D,D, z/ .FD/ | G,,6 z2 |] %17
V:3
 x8 | x8 | x8 | x8 | x8 | x8 | x8 |[M:3/4] x6 |[M:1/4] x2 |[M:4/4] x8 | x8 | x8 | %12
 .D2 z2 z2 [DGB][^DAB] | x8 | x8 | x8 | x8 |] %17
V:4
 x8 | x8 | x8 | x8 | x8 | x8 | x8 |[M:3/4] x6 |[M:1/4] x2 |[M:4/4] x8 | x8 | x8 | %12
 G,6[K:treble] z2[K:bass] | x8 | x8 | z4 z2 D,D, | x8 |] %17

